Obsidian-SemiLight/actions/16s/view-pim-tasks-pending.svg

<svg viewBox="0 0 16 16" xmlns="http://www.w3.org/2000/svg"><g><path d="m2 2v12h9v-1h-8v-8h10v3h1v-6h-2v2h-2v-2h-4v2h-2v-2zm8.335938 4.5-3.148438 3.609375-1.5253906-1.5527344-.6621094.6757813 2.2265625 2.2675781 3.7734375-4.3222656z" fill="#4d4d4d"/><path d="m12 9v3h1v-3zm0 4v1h1v-1z" fill="#da4453"/></g></svg>

<svg xmlns="http://www.w3.org/2000/svg" viewBox="0 0 16 16">
  <defs id="defs3051">
    <style type="text/css" id="current-color-scheme">
      .ColorScheme-Text {
        color:#4d4d4d;
      }
      .ColorScheme-NegativeText {
        color:#da4453;
      }
      </style>
  </defs>
  <g
     transform="translate(-421.71429,-531.79074)">
    <path
       style="fill:currentColor;fill-opacity:1;stroke:none" 
       d="M 2 2 L 2 14 L 11 14 L 11 13 L 3 13 L 3 5 L 13 5 L 13 8 L 14 8 L 14 2 L 12 2 L 12 4 L 10 4 L 10 2 L 6 2 L 6 4 L 4 4 L 4 2 L 2 2 z M 10.335938 6.5 L 7.1875 10.109375 L 5.6621094 8.5566406 L 5 9.2324219 L 7.2265625 11.5 L 11 7.1777344 L 10.335938 6.5 z "
       transform="translate(421.71429,531.79074)"
     class="ColorScheme-Text"
       id="rect4449" />
    <path
       style="fill:currentColor;fill-opacity:1;stroke:none" 
     class="ColorScheme-NegativeText"
     d="M 12 9 L 12 12 L 13 12 L 13 9 L 12 9 z M 12 13 L 12 14 L 13 14 L 13 13 L 12 13 z "
       transform="translate(421.71429,531.79074)"
       id="rect4177" />
  </g>
</svg>
